public/assets/images/General/Vector.svg

<svg width="27" height="39" viewBox="0 0 27 39" fill="none" xmlns="http://www.w3.org/2000/svg">
<path d="M23.241 20.9827C22.9503 20.4591 22.6381 20.0159 22.3049 19.6539C21.9718 19.2915 21.5347 18.9617 20.9926 18.6632C20.4512 18.3649 19.972 18.1337 19.5555 17.969C19.1393 17.8041 18.5806 17.6394 17.8796 17.4745C17.1792 17.3096 16.6273 17.1934 16.2247 17.1253C15.8217 17.0575 15.2411 16.9706 14.4832 16.8645C13.8106 16.7672 13.3088 16.6902 12.9775 16.6339C12.6465 16.5773 12.2085 16.4903 11.6632 16.3725C11.1183 16.2549 10.7046 16.1359 10.4225 16.0159C10.1405 15.896 9.83381 15.7412 9.50234 15.5518C9.17087 15.3623 8.91913 15.1393 8.74694 14.883C8.57501 14.6264 8.45387 14.3326 8.38389 14.0013C8.20089 13.1352 8.44977 12.3438 9.13098 11.6278C9.81225 10.9117 10.7839 10.4202 12.0458 10.1536C12.6033 10.0358 13.1872 9.98887 13.7956 10.0135C14.404 10.0382 14.9337 10.0988 15.3845 10.1967C15.8357 10.2945 16.2671 10.4163 16.6796 10.5619C17.092 10.7078 17.3866 10.8217 17.5637 10.9041C17.7407 10.9865 17.8536 11.0425 17.9011 11.0724C18.101 11.1632 18.2892 11.17 18.4671 11.0926C18.6636 11.0378 18.7949 10.9034 18.8611 10.69L19.8857 7.55897C19.9912 7.27063 19.9071 7.03549 19.6326 6.85379C19.5367 6.79422 19.4186 6.72609 19.2767 6.64952C19.1359 6.5727 18.8378 6.44278 18.3825 6.25937C17.9276 6.07608 17.4554 5.9263 16.9663 5.81001C16.4768 5.69403 15.8537 5.60262 15.0973 5.53631C14.3413 5.46958 13.5763 5.47829 12.8029 5.56193L12.0923 2.19848C12.0546 2.02024 11.964 1.88626 11.8205 1.79672C11.6769 1.70751 11.5119 1.6823 11.3257 1.72166L8.63582 2.28998C8.46318 2.32646 8.32655 2.41846 8.22596 2.5662C8.12538 2.71394 8.09256 2.87051 8.12756 3.03617L8.85433 6.47591C6.84967 7.29858 5.33654 8.50998 4.31482 10.1099C3.29326 11.7099 2.96791 13.3887 3.3394 15.147C3.44975 15.6693 3.61139 16.1541 3.82385 16.6014C4.03624 17.0491 4.26531 17.4433 4.51079 17.7839C4.75618 18.1249 5.07008 18.4444 5.45225 18.7431C5.8344 19.0416 6.18933 19.2927 6.5167 19.4962C6.8442 19.6996 7.25675 19.8954 7.75412 20.083C8.25181 20.2708 8.67485 20.4178 9.02337 20.5237C9.37185 20.6291 9.82871 20.7395 10.3936 20.8525C10.9587 20.9662 11.4029 21.0485 11.7261 21.1002C12.0491 21.1516 12.4912 21.2248 13.0524 21.3187C13.826 21.4347 14.4012 21.5295 14.7775 21.6031C15.154 21.6767 15.6352 21.7879 16.222 21.9368C16.8082 22.0855 17.2471 22.2424 17.5388 22.4071C17.8302 22.5718 18.1092 22.7924 18.3758 23.0686C18.6424 23.3449 18.8136 23.6614 18.889 24.0183C19.1017 25.0248 18.8574 25.888 18.156 26.608C17.455 27.3286 16.5662 27.8025 15.4905 28.0298C14.9995 28.1335 14.497 28.1868 13.9842 28.1887C12.1874 28.2219 10.4055 27.7666 8.63814 26.8226L8.59022 26.7928C8.44108 26.6783 8.26949 26.6545 8.07589 26.7222C7.86871 26.7926 7.73205 26.9014 7.66614 27.0486L6.159 30.0618C6.01352 30.3587 6.08216 30.6169 6.36443 30.8368C6.4471 30.8992 6.58757 30.9896 6.78576 31.1071C6.98449 31.2252 7.34373 31.3984 7.86386 31.6285C8.38403 31.8582 8.94002 32.0597 9.53206 32.2344C10.1239 32.4087 10.8577 32.5496 11.734 32.6574C12.6102 32.7647 13.4984 32.7832 14.3993 32.7125L15.1059 36.0567C15.1409 36.2226 15.2343 36.3524 15.386 36.4469C15.5378 36.5415 15.6999 36.5701 15.8725 36.5337L18.5624 35.9653C18.7486 35.926 18.8894 35.8365 18.9846 35.6967C19.0798 35.557 19.1083 35.3978 19.0705 35.2191L18.3639 31.8749C20.4062 31.0975 21.9392 29.8652 22.9632 28.1782C23.9872 26.4912 24.2936 24.6731 23.8818 22.7241C23.7465 22.0874 23.5338 21.5068 23.241 20.9827Z" fill="#79A164" fill-opacity="0.65"/>
</svg>

<svg width="27" height="39" fill="none" xmlns="http://www.w3.org/2000/svg"><path d="M23.241 20.983a6.897 6.897 0 0 0-.936-1.33c-.333-.361-.77-.691-1.312-.99a12.8 12.8 0 0 0-1.438-.694c-.416-.165-.974-.33-1.675-.495-.7-.164-1.253-.28-1.655-.349a68.766 68.766 0 0 0-1.742-.26 67.44 67.44 0 0 1-1.506-.231 32.346 32.346 0 0 1-1.314-.262c-.545-.117-.958-.236-1.24-.356a8.881 8.881 0 0 1-.92-.464c-.332-.19-.584-.413-.756-.669a2.491 2.491 0 0 1-.363-.882c-.183-.866.066-1.657.747-2.373.681-.716 1.653-1.208 2.915-1.474a7.059 7.059 0 0 1 1.75-.14 9.366 9.366 0 0 1 1.588.183c.452.098.883.22 1.296.365.412.146.707.26.884.342.177.082.29.139.337.168.2.091.388.098.566.02.197-.054.328-.189.394-.402l1.025-3.131c.105-.288.021-.524-.253-.705a6.831 6.831 0 0 0-.356-.204c-.141-.077-.44-.207-.895-.39a9.93 9.93 0 0 0-1.416-.45c-.49-.116-1.112-.207-1.869-.274a11.715 11.715 0 0 0-2.294.026l-.71-3.364a.597.597 0 0 0-.273-.401.65.65 0 0 0-.494-.075l-2.69.568a.64.64 0 0 0-.41.276.589.589 0 0 0-.098.47l.726 3.44c-2.004.823-3.517 2.034-4.54 3.634-1.02 1.6-1.346 3.279-.975 5.037.11.522.272 1.007.485 1.454.212.448.441.842.687 1.183.245.34.56.66.941.96.382.298.737.549 1.065.752.327.204.74.4 1.237.587.498.188.92.335 1.27.44.348.106.805.216 1.37.33.565.113 1.009.195 1.332.247.323.052.765.125 1.326.219.774.116 1.35.21 1.726.284.376.074.857.185 1.444.334.586.148 1.025.305 1.317.47.291.165.57.385.837.662.266.276.438.592.513.95.213 1.006-.032 1.869-.733 2.589s-1.59 1.194-2.665 1.422a7.406 7.406 0 0 1-1.507.159c-1.797.033-3.579-.422-5.346-1.366l-.048-.03a.516.516 0 0 0-.514-.07c-.207.07-.344.178-.41.326L6.16 30.062c-.145.297-.077.555.205.775.083.062.224.153.422.27.198.118.558.291 1.078.521.52.23 1.076.432 1.668.606.592.175 1.326.316 2.202.423.876.108 1.764.126 2.665.056l.707 3.344a.59.59 0 0 0 .28.39.639.639 0 0 0 .487.087l2.69-.569a.649.649 0 0 0 .422-.268.595.595 0 0 0 .085-.478l-.706-3.344c2.042-.777 3.575-2.01 4.6-3.697 1.023-1.687 1.33-3.505.918-5.454a6.18 6.18 0 0 0-.641-1.741Z" fill="#79A164" fill-opacity=".65"/></svg>
